public/icons/icon/arrowhead-square.svg

<svg width="30" height="30" viewBox="0 0 30 30" fill="none" xmlns="http://www.w3.org/2000/svg">
<path d="M1 15L5 15M8 27H26C27.6569 27 29 25.6569 29 24V6C29 4.34315 27.6569 3 26 3H8C6.34315 3 5 4.34315 5 6V24C5 25.6569 6.34315 27 8 27Z" stroke="black" stroke-width="2" stroke-linecap="round"/>
</svg>

<svg xmlns="http://www.w3.org/2000/svg" width="30" height="30" fill="none"><path stroke="#000" stroke-linecap="round" stroke-width="2" d="M1 15h4m3 12h18a3 3 0 0 0 3-3V6a3 3 0 0 0-3-3H8a3 3 0 0 0-3 3v18a3 3 0 0 0 3 3Z"/></svg>
